X: 52
T:Young Jane
% Nottingham Music Database
S:FTB 1/36
M:3/4
L:1/4
K:G
(3D/2E/2F/2|"G"G3/2A/2B|"D"ABd|"C"e2e|"D7"d3/2B/2A|"G"G3/2A/2B|"D"A2G|"Em"E3|
"D7"D3/2E/2F|"G"G3/2A/2B|"D"ABd|"C"e2e|"D"d2e|"Em"G3/2A/2B|"D"A2G|"G"G3-|
"D7"GBc|"G"dBd|"G"g3/2f/2g|"C"e2e|"Am"A2B|"C"c3/2d/2e|"G"dBA|"A7"G3|
"D7"F3/2D/2E/2F/2|"G"G3/2A/2B|"D"ABd|"C"e2e|"D"d2e|"Em"G3/2A/2B|"D"A2G|"G"G3-|\
"G"G2||<end>
<start>
